icon/lg/customerio-icon.svg

<?xml version="1.0" encoding="UTF-8"?>
<svg viewBox="0 0 256 180" version="1.1" xmlns="http://www.w3.org/2000/svg" xmlns:xlink="http://www.w3.org/1999/xlink" preserveAspectRatio="xMidYMid" height="1em" width="1em">
  <g>
    <path d="M127.842941,102.422799 C148.557943,102.422799 167.232752,89.9430648 175.15775,70.8039497 C183.082749,51.6648347 178.696892,29.6363011 164.04567,14.9920862 C149.394449,0.347871373 127.36382,-4.02744714 108.228498,3.90670559 C89.093176,11.8408583 76.6223849,30.5216345 76.6322857,51.2366345 C76.6322857,64.8162922 82.0284637,77.8394047 91.6330281,87.4393758 C101.237592,97.0393469 114.263285,102.42929 127.842941,102.422799 L127.842941,102.422799 Z" fill="#FFCD00"/>
    <path d="M128.161324,128.015872 L127.989887,128.015872 C92.8629585,128.007001 62.2126807,104.182459 53.5372929,70.1436748 C50.9657395,59.9064431 42.6388046,51.2366345 32.0831902,51.2366345 L0,51.2366345 C0,121.923497 57.3030242,179.226521 127.989887,179.226521 L128.161324,179.226521 L128.161324,128.015872 Z" fill="#00ECBB"/>
    <path d="M127.842941,128.015872 L127.989887,128.015872 C163.119799,128.015701 193.774788,104.187498 202.442481,70.1436748 C205.038525,59.9064431 213.36546,51.2366345 223.921074,51.2366345 L256.004265,51.2366345 C255.99074,121.927459 198.680712,179.226521 127.989887,179.226521 L127.842941,179.226521 L127.842941,128.015872 Z" fill="#AF64FF"/>
    <path d="M218.508567,141.730824 C194.505489,165.73598 161.949081,179.222111 128.002132,179.222111 C94.0551839,179.222111 61.4987761,165.73598 37.4956978,141.730824 L73.6933734,105.533148 C103.692767,135.51378 152.311497,135.51378 182.310891,105.533148 L218.508567,141.730824 Z" fill="#7131FF"/>
  </g>
</svg>

<svg width="256" height="180" xmlns="http://www.w3.org/2000/svg" preserveAspectRatio="xMidYMid"><path d="M127.843 102.423a51.21 51.21 0 1 0-51.21-51.186 51.186 51.186 0 0 0 51.21 51.186Z" fill="#FFCD00"/><path d="M128.161 128.016h-.171c-35.127-.009-65.777-23.834-74.453-57.872-2.571-10.238-10.898-18.907-21.454-18.907H0c0 70.686 57.303 127.99 127.99 127.99h.171v-51.211Z" fill="#00ECBB"/><path d="M127.843 128.016h.147c35.13 0 65.785-23.829 74.452-57.872 2.597-10.238 10.923-18.907 21.48-18.907h32.082c-.013 70.69-57.323 127.99-128.014 127.99h-.147v-51.211Z" fill="#AF64FF"/><path d="M218.509 141.73a127.99 127.99 0 0 1-181.013 0l36.197-36.197c30 29.98 78.618 29.98 108.618 0l36.198 36.198Z" fill="#7131FF"/></svg>
